img/icons/aboutus_goals-icon_2.svg

<svg width="65" height="52" viewBox="0 0 65 52" fill="none" xmlns="http://www.w3.org/2000/svg">
<path d="M6.83975 41.2405C5.53036 41.2405 4.46881 42.302 4.46881 43.6114C4.46881 44.9208 5.53036 45.9823 6.83975 45.9823H57.4493C58.7587 45.9823 59.8203 44.9208 59.8203 43.6114C59.8203 42.302 58.7587 41.2405 57.4493 41.2405H52.2184V21.8118H57.4493C58.4916 21.8118 59.4118 21.1309 59.7166 20.1341C60.0213 19.1374 59.6391 18.0584 58.7752 17.4752L33.4704 0.405429C32.669 -0.135143 31.6198 -0.135143 30.8184 0.405429L5.51392 17.4755C4.64995 18.0584 4.26776 19.1374 4.5725 20.1344C4.87725 21.1312 5.79748 21.8121 6.83975 21.8121H12.0707V41.2408H6.83975V41.2405ZM35.6744 21.8121V41.2408H28.6144V21.8121H35.6744ZM47.4766 41.2405H40.4166V21.8121H47.4766V41.2405ZM32.1445 5.23107L49.6951 17.0699H14.5943L32.1445 5.23107ZM16.8125 21.8121H23.8725V41.2408H16.8125V21.8121Z" fill="url(#paint0_linear)"/>
<path d="M62.7055 48.8384H1.58062C0.707802 48.8384 0 49.5462 0 50.419C0 51.2918 0.707802 51.9996 1.58062 51.9996H62.7055C63.5783 51.9996 64.2861 51.2918 64.2861 50.419C64.2861 49.5462 63.5786 48.8384 62.7055 48.8384Z" fill="url(#paint1_linear)"/>
<defs>
<linearGradient id="paint0_linear" x1="59.8203" y1="22.9912" x2="4.46875" y2="22.9912" gradientUnits="userSpaceOnUse">
<stop stop-color="#4CBA85"/>
<stop offset="1" stop-color="#2569AC"/>
</linearGradient>
<linearGradient id="paint1_linear" x1="64.2861" y1="50.419" x2="4.41633e-08" y2="50.419" gradientUnits="userSpaceOnUse">
<stop stop-color="#4CBA85"/>
<stop offset="1" stop-color="#2569AC"/>
</linearGradient>
</defs>
</svg>

<svg width="65" height="52" fill="none" xmlns="http://www.w3.org/2000/svg"><path d="M6.84 41.24a2.371 2.371 0 000 4.742h50.61a2.371 2.371 0 000-4.742h-5.232V21.812h5.231a2.371 2.371 0 001.326-4.337L33.47.405a2.371 2.371 0 00-2.652 0L5.514 17.475a2.371 2.371 0 001.326 4.337h5.23v19.429H6.84zm28.834-19.428v19.429h-7.06V21.812h7.06zM47.477 41.24h-7.06V21.812h7.06V41.24zM32.145 5.231l17.55 11.839h-35.1L32.144 5.23zM16.812 21.812h7.06v19.429h-7.06V21.812z" fill="url(#paint0_linear)"/><path d="M62.706 48.838H1.58a1.58 1.58 0 000 3.162h61.124a1.58 1.58 0 000-3.162z" fill="url(#paint1_linear)"/><defs><linearGradient id="paint0_linear" x1="59.82" y1="22.991" x2="4.469" y2="22.991" gradientUnits="userSpaceOnUse"><stop stop-color="#4CBA85"/><stop offset="1" stop-color="#2569AC"/></linearGradient><linearGradient id="paint1_linear" x1="64.286" y1="50.419" x2="0" y2="50.419" gradientUnits="userSpaceOnUse"><stop stop-color="#4CBA85"/><stop offset="1" stop-color="#2569AC"/></linearGradient></defs></svg>
